server/views/icons/a11y/lifts.svg

<svg viewBox="0 0 26 26"><path fill="#1d1d1d" class="icon__shape" d="M18 1.45H7.6a4 4 0 0 0-4 4v18.3a1 1 0 0 0 2 0V5.45a2 2 0 0 1 2-2H18a2 2 0 0 1 2 2v18.3a1 1 0 1 0 2 0V5.45a4 4 0 0 0-4-4z"/><path fill="#1d1d1d" class="icon__shape" d="M15.42 9.2h-5.25a2.43 2.43 0 0 0-2.43 2.43v4.47a1 1 0 1 0 2 0v-4.47a.43.43 0 0 1 .43-.43h5.25a.43.43 0 0 1 .43.43v4.47a1 1 0 0 0 2 0v-4.47a2.43 2.43 0 0 0-2.43-2.43z"/><circle cx="12.8" cy="6.32" r="2.08"/><path fill="#1d1d1d" class="icon__shape" d="M11.42 15.35a1 1 0 0 0-1 1v7.4a1 1 0 1 0 2 0v-7.4a1 1 0 0 0-1-1zM14.42 15.35a1 1 0 0 0-1 1v7.4a1 1 0 1 0 2 0v-7.4a1 1 0 0 0-1-1z"/></svg>

<svg viewBox="0 0 26 26">
  <path fill="#1d1d1d" class="icon__shape" d="M18,1.45H7.6a4,4,0,0,0-4,4v18.3a1,1,0,0,0,2,0V5.45a2,2,0,0,1,2-2H18a2,2,0,0,1,2,2v18.3a1,1,0,1,0,2,0V5.45A4,4,0,0,0,18,1.45Z"/>
  <path fill="#1d1d1d" class="icon__shape" d="M15.42,9.2H10.17a2.43,2.43,0,0,0-2.43,2.43V16.1a1,1,0,1,0,2,0V11.63a.43.43,0,0,1,.43-.43h5.25a.43.43,0,0,1,.43.43V16.1a1,1,0,0,0,2,0V11.63A2.43,2.43,0,0,0,15.42,9.2Z"/><circle cx="12.8" cy="6.32" r="2.08"/>
  <path fill="#1d1d1d" class="icon__shape" d="M11.42,15.35a1,1,0,0,0-1,1v7.4a1,1,0,1,0,2,0v-7.4A1,1,0,0,0,11.42,15.35Z"/>
  <path fill="#1d1d1d" class="icon__shape" d="M14.42,15.35a1,1,0,0,0-1,1v7.4a1,1,0,1,0,2,0v-7.4A1,1,0,0,0,14.42,15.35Z"/>
</svg>
